style-guide/assets/wds-icons-radio-active.svg

<svg xmlns="http://www.w3.org/2000/svg" xmlns:xlink="http://www.w3.org/1999/xlink" viewBox="0 0 24 24">
  <defs>
    <path id="radio-active-a" d="M12 21c-4.962 0-9-4.037-9-9s4.038-9 9-9 9 4.037 9 9-4.038 9-9 9m0-20C5.935 1 1 5.935 1 12s4.935 11 11 11 11-4.935 11-11S18.065 1 12 1m0 7c-2.206 0-4 1.795-4 4s1.794 4 4 4 4-1.795 4-4-1.794-4-4-4"/>
  </defs>
  <use fill-rule="evenodd" xlink:href="#radio-active-a"/>
</svg>

<svg xmlns="http://www.w3.org/2000/svg" xmlns:xlink="http://www.w3.org/1999/xlink" width="24" height="24" viewBox="0 0 24 24">
  <defs>
    <path id="radio-active-a" d="M12,21 C7.038,21 3,16.963 3,12 C3,7.037 7.038,3 12,3 C16.962,3 21,7.037 21,12 C21,16.963 16.962,21 12,21 M12,1 C5.935,1 1,5.935 1,12 C1,18.065 5.935,23 12,23 C18.065,23 23,18.065 23,12 C23,5.935 18.065,1 12,1 M12,8 C9.794,8 8,9.795 8,12 C8,14.205 9.794,16 12,16 C14.206,16 16,14.205 16,12 C16,9.795 14.206,8 12,8"/>
  </defs>
  <use fill-rule="evenodd" xlink:href="#radio-active-a"/>
</svg>
